assets/chat-bubble-green.svg

<svg fill="none" height="32" viewBox="0 0 32 32" width="32" xmlns="http://www.w3.org/2000/svg" xmlns:xlink="http://www.w3.org/1999/xlink"><filter id="a" color-interpolation-filters="sRGB" filterUnits="userSpaceOnUse" height="37" width="31.873" x=".126953" y="-4"><feFlood flood-opacity="0" result="BackgroundImageFix"/><feBlend in="SourceGraphic" in2="BackgroundImageFix" mode="normal" result="shape"/><feColorMatrix in="SourceAlpha" result="hardAlpha" type="matrix" values="0 0 0 0 0 0 0 0 0 0 0 0 0 0 0 0 0 0 127 0"/><feOffset dy="-4"/><feGaussianBlur stdDeviation="2"/><feComposite in2="hardAlpha" k2="-1" k3="1" operator="arithmetic"/><feColorMatrix type="matrix" values="0 0 0 0 1 0 0 0 0 1 0 0 0 0 1 0 0 0 0.7 0"/><feBlend in2="shape" mode="overlay" result="effect1_innerShadow_2175_1871"/><feColorMatrix in="SourceAlpha" result="hardAlpha" type="matrix" values="0 0 0 0 0 0 0 0 0 0 0 0 0 0 0 0 0 0 127 0"/><feOffset dy="2"/><feGaussianBlur stdDeviation=".5"/><feComposite in2="hardAlpha" k2="-1" k3="1" operator="arithmetic"/><feColorMatrix type="matrix" values="0 0 0 0 1 0 0 0 0 1 0 0 0 0 1 0 0 0 0.85 0"/><feBlend in2="effect1_innerShadow_2175_1871" mode="overlay" result="effect2_innerShadow_2175_1871"/></filter><clipPath id="b"><path d="m0 0h32v32h-32z"/></clipPath><mask id="c" fill="#fff"><path d="m24 0c4.4182.00011174 8 3.58179 8 8v16c0 4.4182-3.5818 7.9999-8 8h-9c-4.4183 0-8-3.5817-8-8v-9.5693c-.02243-3.9183-2.86192-7.16723-6.595703-7.82816-.271847-.04857-.3800419-.39205-.158203-.55664 1.329266-.98509 2.974376-1.56931 4.755856-1.56934.91558.00005 1.79494.15518 2.61426.43848 1.20754-2.88676 4.05889-4.91504 7.38379-4.91504z" fill="#fff"/></mask><g clip-path="url(#b)"><g filter="url(#a)"><path d="m24 0c4.4182.00011174 8 3.58179 8 8v16c0 4.4182-3.5818 7.9999-8 8h-9c-4.4183 0-8-3.5817-8-8v-9.5693c-.02243-3.9183-2.86192-7.16723-6.595703-7.82816-.271847-.04857-.3800419-.39205-.158203-.55664 1.329266-.98509 2.974376-1.56931 4.755856-1.56934.91558.00005 1.79494.15518 2.61426.43848 1.20754-2.88676 4.05889-4.91504 7.38379-4.91504z" fill="#b3fa75"/></g><path d="m24 0v-1zm0 32v1zm-17-17.5693h1.00002l-.00004-.0058zm-6.595703-7.82816-.175891.98441.001586.00028zm-.158203-.55664-.595402-.80343-.000458.00034zm4.755856-1.56934.00006-1h-.00007zm2.61426.43848-.32679.9451.88711.30673.36222-.86593zm16.38379-4.91504v1c3.8659.0001 7 3.1341 7 7h1 1c0-4.97052-4.0296-8.999874-9-9zm8 8h-1v16h1 1v-16zm0 16h-1c0 3.8659-3.1341 6.9999-7 7v1 1c4.9704-.0001 9-4.0295 9-9zm-8 8v-1h-9v1 1h9zm-9 0v-1c-3.866 0-7-3.134-7-7h-1-1c0 4.9706 4.0294 9 9 9zm-8-8h1v-9.5693h-1-1v9.5693zm0-9.5693.99998-.0058c-.02524-4.4095-3.22044-8.06343-7.421378-8.80705l-.174305.98469-.174305.98469c3.266628.57824 5.750408 3.42217 5.770028 6.84917zm-6.595703-7.82816.175891-.98441c.262946.04698.452462.24181.518762.4658.07106.2401.00927.5675-.256997.76506l-.595859-.80309-.59586-.80309c-.488102.36215-.606716.94358-.469057 1.40871.132895.44903.512436.83987 1.047229.93543zm-.158203-.55664.595402.80343c1.163444-.86221 2.601264-1.37274 4.160474-1.37277l-.00002-1-.00001-1c-2.00376.00003-3.85616.65793-5.351248 1.76591zm4.755856-1.56934-.00005 1c.80191.00005 1.57096.13581 2.28752.38358l.32679-.9451.32679-.9451c-.92208-.31883-1.91176-.49332-2.94099-.49338zm2.61426.43848.92254.3859c1.0574-2.52783 3.55355-4.30094 6.46125-4.30094v-1-1c-3.742 0-6.94865 2.28345-8.30633 5.52914zm7.38379-4.91504v1h9v-1-1h-9z" fill="#61b729" fill-opacity=".6" mask="url(#c)"/></g></svg>

<svg width="32" height="32" viewBox="0 0 32 32" fill="none" xmlns="http://www.w3.org/2000/svg">
<g clip-path="url(#clip0_2175_1871)">
<mask id="path-1-inside-1_2175_1871" fill="white">
<path d="M24 0C28.4182 0.000111744 32 3.58179 32 8V24C32 28.4182 28.4182 31.9999 24 32H15C10.5817 32 7 28.4183 7 24V14.4307C6.97757 10.5124 4.13808 7.26347 0.404297 6.60254C0.13245 6.55397 0.0242551 6.21049 0.246094 6.0459C1.57536 5.06081 3.22047 4.47659 5.00195 4.47656C5.91753 4.47661 6.79689 4.63174 7.61621 4.91504C8.82375 2.02828 11.6751 0 15 0H24Z"/>
</mask>
<g filter="url(#filter0_ii_2175_1871)">
<path d="M24 0C28.4182 0.000111744 32 3.58179 32 8V24C32 28.4182 28.4182 31.9999 24 32H15C10.5817 32 7 28.4183 7 24V14.4307C6.97757 10.5124 4.13808 7.26347 0.404297 6.60254C0.13245 6.55397 0.0242551 6.21049 0.246094 6.0459C1.57536 5.06081 3.22047 4.47659 5.00195 4.47656C5.91753 4.47661 6.79689 4.63174 7.61621 4.91504C8.82375 2.02828 11.6751 0 15 0H24Z" fill="#B3FA75"/>
</g>
<path d="M24 0L24 -1H24V0ZM24 32L24 33L24 33L24 32ZM7 14.4307L8.00002 14.4307L7.99998 14.4249L7 14.4307ZM0.404297 6.60254L0.228406 7.58695L0.229992 7.58723L0.404297 6.60254ZM0.246094 6.0459L-0.349308 5.24247L-0.349766 5.24281L0.246094 6.0459ZM5.00195 4.47656L5.00201 3.47656L5.00194 3.47656L5.00195 4.47656ZM7.61621 4.91504L7.28942 5.86014L8.17653 6.16687L8.53875 5.30094L7.61621 4.91504ZM24 0L24 1C27.8659 1.0001 31 4.1341 31 8H32H33C33 3.02948 28.9704 -0.999874 24 -1L24 0ZM32 8H31V24H32H33V8H32ZM32 24H31C31 27.8659 27.8659 30.9999 24 31L24 32L24 33C28.9704 32.9999 33 28.9705 33 24H32ZM24 32V31H15V32V33H24V32ZM15 32V31C11.134 31 8 27.866 8 24H7H6C6 28.9706 10.0294 33 15 33V32ZM7 24H8V14.4307H7H6V24H7ZM7 14.4307L7.99998 14.4249C7.97474 10.0154 4.77954 6.36147 0.578602 5.61785L0.404297 6.60254L0.229992 7.58723C3.49662 8.16547 5.9804 11.0094 6.00002 14.4364L7 14.4307ZM0.404297 6.60254L0.580188 5.61813C0.843134 5.66511 1.03265 5.85994 1.09895 6.08393C1.17001 6.32403 1.10822 6.65143 0.841953 6.84899L0.246094 6.0459L-0.349766 5.24281C-0.837868 5.60496 -0.956482 6.18639 -0.818823 6.65152C-0.685928 7.10055 -0.306387 7.49139 0.228406 7.58695L0.404297 6.60254ZM0.246094 6.0459L0.841496 6.84933C2.00494 5.98712 3.44276 5.47659 5.00197 5.47656L5.00195 4.47656L5.00194 3.47656C2.99818 3.47659 1.14578 4.13449 -0.349308 5.24247L0.246094 6.0459ZM5.00195 4.47656L5.0019 5.47656C5.80381 5.47661 6.57286 5.61237 7.28942 5.86014L7.61621 4.91504L7.943 3.96994C7.02092 3.65111 6.03124 3.47662 5.00201 3.47656L5.00195 4.47656ZM7.61621 4.91504L8.53875 5.30094C9.59615 2.77311 12.0923 1 15 1V0V-1C11.258 -1 8.05135 1.28345 6.69367 4.52914L7.61621 4.91504ZM15 0V1H24V0V-1H15V0Z" fill="#61B729" fill-opacity="0.6" mask="url(#path-1-inside-1_2175_1871)"/>
</g>
<defs>
<filter id="filter0_ii_2175_1871" x="0.126953" y="-4" width="31.873" height="37" filterUnits="userSpaceOnUse" color-interpolation-filters="sRGB">
<feFlood flood-opacity="0" result="BackgroundImageFix"/>
<feBlend mode="normal" in="SourceGraphic" in2="BackgroundImageFix" result="shape"/>
<feColorMatrix in="SourceAlpha" type="matrix" values="0 0 0 0 0 0 0 0 0 0 0 0 0 0 0 0 0 0 127 0" result="hardAlpha"/>
<feOffset dy="-4"/>
<feGaussianBlur stdDeviation="2"/>
<feComposite in2="hardAlpha" operator="arithmetic" k2="-1" k3="1"/>
<feColorMatrix type="matrix" values="0 0 0 0 1 0 0 0 0 1 0 0 0 0 1 0 0 0 0.7 0"/>
<feBlend mode="overlay" in2="shape" result="effect1_innerShadow_2175_1871"/>
<feColorMatrix in="SourceAlpha" type="matrix" values="0 0 0 0 0 0 0 0 0 0 0 0 0 0 0 0 0 0 127 0" result="hardAlpha"/>
<feOffset dy="2"/>
<feGaussianBlur stdDeviation="0.5"/>
<feComposite in2="hardAlpha" operator="arithmetic" k2="-1" k3="1"/>
<feColorMatrix type="matrix" values="0 0 0 0 1 0 0 0 0 1 0 0 0 0 1 0 0 0 0.85 0"/>
<feBlend mode="overlay" in2="effect1_innerShadow_2175_1871" result="effect2_innerShadow_2175_1871"/>
</filter>
<clipPath id="clip0_2175_1871">
<rect width="32" height="32" fill="white"/>
</clipPath>
</defs>
</svg>
